X: 1
P: The Marquis of Huntly's Strathspey
C: William Marshall
C: arr. T. Traub 6-26-03
M: 4/4
L: 1/8
K: Gm
G>F |: "Gm"D<GG>F D<GG>A|"F"F>GA>B c/B/A/G/ F>A|"Gm"D<GG>F D<GG>g|"F"f>c d/c/B/A/ "Gm"G2 G>F :|
"Gm"g>abg dgbg|"F"a/g/f/d/ c>d fcaf|"Gm"g>abg d>gbg|"D"b/a/g/f/ d^f "G"g/g/g g2|
"Gm"g>a b<g a<^fg<d|"F"=f>cdf AFcA|"Gm"D<GG>F D<GG>g|"F"f>c d/c/B/A/ "Gm"G2 |]
